shared/images/iconfont/12-kb-iconfont-camera-off-16.svg

<?xml version="1.0" encoding="UTF-8"?>
<svg width="16px" height="16px" viewBox="0 0 16 16" version="1.1" xmlns="http://www.w3.org/2000/svg" xmlns:xlink="http://www.w3.org/1999/xlink">
    <!-- Generator: sketchtool 57.1 (101010) - https://sketch.com -->
    <title>F65A2181-0DE8-4087-9BC6-C6437D1E7AFC</title>
    <desc>Created with sketchtool.</desc>
    <g id="Symbols" stroke="none" stroke-width="1" fill="none" fill-rule="evenodd">
        <g id="12-kb-iconfont-camera-off-16">
            <g>
                <rect id="icon-area" opacity="0" x="0" y="0" width="16" height="16"></rect>
                <path d="M8,12.3332609 C7.01758888,12.3516933 6.07888635,11.927723 5.44320473,11.1784699 C4.80752312,10.4292168 4.54214503,9.43398432 4.72037998,8.46770092 L0.153646666,3.9009676 C0.0522845439,4.14349866 0,4.40373385 0,4.66659426 L0,13 C0.0012051411,14.1040699 0.895930069,14.9987949 2,15 L11.58596,15 L8.53224664,12.2795476 C8.35658014,12.3118481 8.1785781,12.3298117 8,12.3332609 Z M16,5 C15.9987948,3.89593007 15.1040699,3.00120514 14,3 L12.3567733,3 L11.02344,1 L4.97688665,1 L3.64322665,2.66659427 L1.13804,0.195260943 C0.877729785,-0.0650713593 0.455665635,-0.0650892679 0.195333333,0.195220943 C-0.0649989699,0.455531155 -0.0650168785,0.877595304 0.195293333,1.13792761 L14.86196,15.8045942 C15.1222812,16.0649154 15.5443453,16.0649153 15.8046665,15.8045941 C16.0649877,15.5442729 16.0649878,15.1222088 15.8046666,14.8618876 L15.5432733,14.6004942 C15.8385572,14.2442244 16,13.7959928 16,13.3332609 L16,5 Z M6.83137998,5.88860092 C7.20412563,5.743966 7.60018244,5.66872802 7.99999997,5.66660093 C8.88405873,5.66660093 9.7319123,6.01777404 10.3570362,6.64289798 C10.9821602,7.26802193 11.3333333,8.11587549 11.3333333,8.99993425 C11.3311617,9.39978238 11.2559816,9.79587199 11.1114933,10.1687076 L6.83137998,5.88860092 Z M13.5,6.5 C12.9477153,6.5 12.5,6.05228475 12.5,5.5 C12.5,4.94771525 12.9477153,4.5 13.5,4.5 C14.0522847,4.5 14.5,4.94771525 14.5,5.5 C14.5,6.05228475 14.0522847,6.5 13.5,6.5 Z" id="camera-off" fill="#000000"></path>
            </g>
        </g>
    </g>
</svg>

<svg xmlns="http://www.w3.org/2000/svg" width="16" height="16" viewBox="0 0 16 16">
    <path fill="#000" fill-rule="evenodd" d="M8 12.333a3.273 3.273 0 0 1-3.28-3.865L.154 3.9A1.986 1.986 0 0 0 0 4.667V13a2.002 2.002 0 0 0 2 2h9.586l-3.054-2.72c-.175.032-.353.05-.532.053zM16 5a2.002 2.002 0 0 0-2-2h-1.643l-1.334-2H4.977L3.643 2.667 1.138.195a.667.667 0 0 0-.943.943l14.667 14.667a.667.667 0 0 0 .943-.943l-.262-.262c.296-.356.457-.804.457-1.267V5zm-9.169.889c.373-.145.77-.22 1.169-.222A3.333 3.333 0 0 1 11.333 9c-.002.4-.077.796-.222 1.169l-4.28-4.28zM13.5 6.5a1 1 0 1 1 0-2 1 1 0 0 1 0 2z"/>
</svg>
